static/images/nav-logo.svg

<svg fill="none" height="440" viewBox="0 0 2090 440" width="2090" xmlns="http://www.w3.org/2000/svg"><g fill="#63f"><path d="m445.644 275.443c0 7.336 3.08 12.98 9.244 16.94s14.673 5.94 25.534 5.94c7.331 0 14.45-.949 21.351-2.86 6.891-1.906 13.428-4.766 19.589-8.581v-29.039c-6.458-1.464-12.986-2.64-19.589-3.521-6.603-.879-13.14-1.319-19.589-1.319-11.743 0-20.768 1.911-27.076 5.72-6.315 3.815-9.464 9.391-9.464 16.72zm12.767 69.96c-22.893 0-41.679-6.38-56.349-19.14-14.681-12.76-22.015-29.26-22.015-49.501 0-20.823 7.775-37.027 23.334-48.619 15.554-11.583 37.268-17.379 65.155-17.379 8.211 0 16.575.81 25.092 2.419 8.509 1.617 17.753 4.331 27.734 8.141v-18.481c0-10.848-3.741-19.063-11.225-24.639-7.483-5.568-18.712-8.36-33.676-8.36-8.517 0-17.981 1.25-28.395 3.739-10.423 2.497-22.234 6.532-35.44 12.101l-24.653-49.719c18.489-8.21 36.32-14.37 53.487-18.48 17.17-4.106 34.121-6.16 50.846-6.16 31.404 0 55.835 7.479 73.299 22.438 17.459 14.961 26.192 35.936 26.192 62.92v145.2h-70.435v-19.801c-9.981 8.215-19.962 14.157-29.937 17.821-9.978 3.662-20.984 5.5-33.014 5.5"/><path d="m697.526 227.484c0 15.838 5.208 29.114 15.628 39.82 10.413 10.709 23.256 16.058 38.52 16.058 8.509 0 16.29-1.539 23.331-4.618 7.045-3.081 13.353-7.549 18.928-13.421v-75.679c-5.575-5.568-11.958-9.901-19.147-12.981-7.195-3.08-14.898-4.619-23.112-4.619-15.559 0-28.47 5.28-38.74 15.84-10.278 10.559-15.408 23.76-15.408 39.6zm30.375 113.958c-13.798 0-26.853-3.004-39.181-9.021-12.326-6.008-22.968-14.145-31.918-24.418-8.953-10.266-16.067-22.364-21.35-36.3-5.281-13.928-7.923-28.821-7.923-44.659 0-15.84 2.711-30.648 8.145-44.44 5.425-13.785 12.911-25.808 22.45-36.08 9.534-10.264 20.762-18.327 33.679-24.199 12.912-5.864 26.703-8.801 41.382-8.801 12.028 0 23.4 2.499 34.117 7.482 10.709 4.989 19.878 12.03 27.515 21.118v-27.279h69.996v230.117c0 30.504-10.347 53.97-31.037 70.401-20.692 16.425-50.262 24.637-88.705 24.637-17.025 0-33.609-1.758-49.748-5.278-16.143-3.52-30.965-8.513-44.463-14.961l22.012-51.481c12.617 5.867 24.654 10.265 36.098 13.203 11.448 2.929 22.598 4.397 33.46 4.397 16.728 0 29.495-3.517 38.298-10.558 8.805-7.042 13.205-17.456 13.205-31.24v-32.559c-7.339 9.096-16.878 16.353-28.614 21.778-11.739 5.434-24.212 8.141-37.418 8.141"/><path d="m897.863 318.564 31.257-47.522c16.136 8.513 29.642 14.452 40.501 17.821 10.855 3.376 21.717 5.059 32.579 5.059 9.97 0 17.9-1.683 23.77-5.059 5.87-3.369 8.81-7.844 8.81-13.42 0-4.401-1.7-7.92-5.07-10.56s-8.73-4.543-16.07-5.72l-43.578-7.921c-22.011-4.103-38.67-11.728-49.965-22.878-11.303-11.144-16.95-25.521-16.95-43.12 0-23.169 8.433-41.36 25.314-54.56 16.873-13.199 40.129-19.801 69.774-19.801 15.855 0 31.545 2.202 47.105 6.602 15.55 4.398 30.67 10.856 45.35 19.36l-32.58 45.319c-11.45-6.449-22.53-11.288-33.24-14.52-10.72-3.225-21.35-4.84-31.915-4.84-8.518 0-15.19 1.396-20.031 4.179-4.842 2.792-7.264 6.676-7.264 11.661 0 4.694 1.686 8.215 5.064 10.56 3.369 2.351 9.461 4.255 18.27 5.719l42.696 7.92c22.3 4.111 39.33 11.812 51.07 23.101 11.74 11.294 17.46 25.45 17.17 42.459 0 11.152-2.42 21.49-7.26 31.02-4.85 9.535-11.67 17.751-20.47 24.639-8.81 6.895-19.23 12.321-31.26 16.28-12.04 3.963-24.95 5.942-38.74 5.942-20.549 0-39.774-2.352-57.672-7.041-17.903-4.689-33.459-11.583-46.665-20.679"/><path d="m1614.55 114.845v227.038h-71.32v-227.038zm-35.66-35.1986c-11.15 0-20.62-3.884-28.39-11.6609-7.78-7.7709-11.67-17.0857-11.67-27.9385 0-10.8498 3.96-20.2428 11.89-28.1609 7.92-7.92104 17.31-11.8800939 28.17-11.8800939 10.85 0 20.32 3.9590539 28.4 11.8800939 8.06 7.9181 12.1 17.3111 12.1 28.1609 0 10.8528-3.89 20.1676-11.66 27.9385-7.78 7.7769-17.39 11.6609-28.84 11.6609"/><path d="m1699.95 271.923v-102.08h-44.02v-54.998h44.02v-53.9067l74.39-14.7037-3.07 68.6104h60.75v54.998h-60.75v87.999c0 9.976 2.27 17.017 6.82 21.12 4.55 4.111 12.25 6.16 23.12 6.16 4.1 0 8.21-.289 12.32-.88 4.11-.583 9.69-1.903 16.73-3.96v57.642c-6.46 2.054-14.38 3.737-23.77 5.058-9.4 1.322-17.76 1.979-25.1 1.979-26.7 0-46.96-6.16-60.75-18.479-13.8-12.321-20.69-30.505-20.69-54.559z"/><path d="m1871.64 341.883v-317.6001l71.32-17.00762v144.52872c8.8-13.202 19.29-23.243 31.47-30.14 12.18-6.888 25.6-10.339 40.28-10.339 22.01 0 40.06 7.26 54.15 21.78s21.13 33.074 21.13 55.659v153.119h-71.31v-132.439c0-12.608-3.46-22.805-10.35-30.581-6.9-7.769-16.07-11.659-27.51-11.659-7.64 0-17.29 2.087-23.13 5.978-11.78 7.848-15.7 15.695-14.73 28.637v140.064z"/><path d="m1136.42 343.421h75.34c1.64-56.944 4.28-147.967 6.66-157.419 4.16-16.57 16.1-23.273 32.44-21.848 14.67 1.279 23.32 9.845 25.89 26.699 1.22 8.009 1.46 16.197 1.71 24.317.17 5.724-1.4 75.134-2.59 128.251h73.93c.98-55.184 2.31-119.371 3.01-128.137.91-11.354 2.88-23.18 7.3-33.553 5.58-13.118 18.96-18.209 33.08-15.774 12.04 2.075 19 9.166 21.47 24.12 1.63 9.881 2.01 20.048 2.11 30.093.14 13.871-.85 68.782-1.85 123.251h73.04c1.2-72.443 2.36-150.032 1.52-177.964-.7-23.161-14.02-40.627-36.07-50.188-38.66-16.7704-81.45-5.963-107.43 27.1-.63.803-1.81 1.169-3.06 1.936-13.74-23.082-34.64-33.908-60.61-35.861-25.97-1.955-48.15 7.188-67.61 25.992-.45-8.768-.78-15.217-1.15-22.549-22.69 0-44.36.162-66.02-.09-7.69-.088-7.55 4.649-7.54 9.975.04 22.863-1.71 166.663-3.57 221.649"/><path d="m273.013 131.099v212.256h71.318v-289.893c-10.35 28.9989-27.668 65.204-71.318 77.637z"/><path d="m7.81051 151.451c-15.62702-52.1207-7.8211396-101.9751 58.54009-120.8421 16.8292-4.7851 42.4824-8.2425 59.8964-8.5129 63.566-.9882 195.198-.2072 198.206.0301 1.653.1321-4.709 25.16-15.856 41.7111-18.233 27.0704-44.207 39.7738-77.023 41.4258-40.408 2.036-80.93 2.415-121.403 2.433-40.0708.021-74.4522 12-100.86364 43.243-.29116.347-.98616.355-1.49685.512z"/><path d="m207.696 139.206-107.196-.195c-55.5867.484-100.5 45.66-100.5 101.331 0 55.67 44.9133 100.848 100.5 101.331v-130.759h107.196z"/></g></svg>

<svg width="2090" height="440" viewBox="0 0 2090 440" fill="none" xmlns="http://www.w3.org/2000/svg">
    <path d="M445.644 275.443C445.644 282.779 448.724 288.423 454.888 292.383C461.052 296.343 469.561 298.323 480.422 298.323C487.753 298.323 494.872 297.374 501.773 295.463C508.664 293.557 515.201 290.697 521.362 286.882V257.843C514.904 256.379 508.376 255.203 501.773 254.322C495.17 253.443 488.633 253.003 482.184 253.003C470.441 253.003 461.416 254.914 455.108 258.723C448.793 262.538 445.644 268.114 445.644 275.443ZM458.411 345.403C435.518 345.403 416.732 339.023 402.062 326.263C387.381 313.503 380.047 297.003 380.047 276.762C380.047 255.939 387.822 239.735 403.381 228.143C418.935 216.56 440.649 210.764 468.536 210.764C476.747 210.764 485.111 211.574 493.628 213.183C502.137 214.8 511.381 217.514 521.362 221.324V202.843C521.362 191.995 517.621 183.78 510.137 178.204C502.654 172.636 491.425 169.844 476.461 169.844C467.944 169.844 458.48 171.094 448.066 173.583C437.643 176.08 425.832 180.115 412.626 185.684L387.973 135.965C406.462 127.755 424.293 121.595 441.46 117.485C458.63 113.379 475.581 111.325 492.306 111.325C523.71 111.325 548.141 118.804 565.605 133.763C583.064 148.724 591.797 169.699 591.797 196.683V341.883H521.362V322.082C511.381 330.297 501.4 336.239 491.425 339.903C481.447 343.565 470.441 345.403 458.411 345.403" fill="#6633FF"/>
    <path d="M697.526 227.484C697.526 243.322 702.734 256.598 713.154 267.304C723.567 278.013 736.41 283.362 751.674 283.362C760.183 283.362 767.964 281.823 775.005 278.744C782.05 275.663 788.358 271.195 793.933 265.323V189.644C788.358 184.076 781.975 179.743 774.786 176.663C767.591 173.583 759.888 172.044 751.674 172.044C736.115 172.044 723.204 177.324 712.934 187.884C702.656 198.443 697.526 211.644 697.526 227.484ZM727.901 341.442C714.103 341.442 701.048 338.438 688.72 332.421C676.394 326.413 665.752 318.276 656.802 308.003C647.849 297.737 640.735 285.639 635.452 271.703C630.171 257.775 627.529 242.882 627.529 227.044C627.529 211.204 630.24 196.396 635.674 182.604C641.099 168.819 648.585 156.796 658.124 146.524C667.658 136.26 678.886 128.197 691.803 122.325C704.715 116.461 718.506 113.524 733.185 113.524C745.213 113.524 756.585 116.023 767.302 121.006C778.011 125.995 787.18 133.036 794.817 142.124V114.845H864.813V344.962C864.813 375.466 854.466 398.932 833.776 415.363C813.084 431.788 783.514 440 745.071 440C728.046 440 711.462 438.242 695.323 434.722C679.18 431.202 664.358 426.209 650.86 419.761L672.872 368.28C685.489 374.147 697.526 378.545 708.97 381.483C720.418 384.412 731.568 385.88 742.43 385.88C759.158 385.88 771.925 382.363 780.728 375.322C789.533 368.28 793.933 357.866 793.933 344.082V311.523C786.594 320.619 777.055 327.876 765.319 333.301C753.58 338.735 741.107 341.442 727.901 341.442" fill="#6633FF"/>
    <path d="M897.863 318.564L929.12 271.042C945.256 279.555 958.762 285.494 969.621 288.863C980.476 292.239 991.338 293.922 1002.2 293.922C1012.17 293.922 1020.1 292.239 1025.97 288.863C1031.84 285.494 1034.78 281.019 1034.78 275.443C1034.78 271.042 1033.08 267.523 1029.71 264.883C1026.34 262.243 1020.98 260.34 1013.64 259.163L970.062 251.242C948.051 247.139 931.392 239.514 920.097 228.364C908.794 217.22 903.147 202.843 903.147 185.244C903.147 162.075 911.58 143.884 928.461 130.684C945.334 117.485 968.59 110.883 998.235 110.883C1014.09 110.883 1029.78 113.085 1045.34 117.485C1060.89 121.883 1076.01 128.341 1090.69 136.845L1058.11 182.164C1046.66 175.715 1035.58 170.876 1024.87 167.644C1014.15 164.419 1003.52 162.804 992.955 162.804C984.437 162.804 977.765 164.2 972.924 166.983C968.082 169.775 965.66 173.659 965.66 178.644C965.66 183.338 967.346 186.859 970.724 189.204C974.093 191.555 980.185 193.459 988.994 194.923L1031.69 202.843C1053.99 206.954 1071.02 214.655 1082.76 225.944C1094.5 237.238 1100.22 251.394 1099.93 268.403C1099.93 279.555 1097.51 289.893 1092.67 299.423C1087.82 308.958 1081 317.174 1072.2 324.062C1063.39 330.957 1052.97 336.383 1040.94 340.342C1028.9 344.305 1015.99 346.284 1002.2 346.284C981.651 346.284 962.426 343.932 944.528 339.243C926.625 334.554 911.069 327.66 897.863 318.564" fill="#6633FF"/>
    <path d="M1614.55 114.845V341.883H1543.23V114.845H1614.55ZM1578.89 79.6464C1567.74 79.6464 1558.27 75.7624 1550.5 67.9855C1542.72 60.2146 1538.83 50.8998 1538.83 40.047C1538.83 29.1972 1542.79 19.8042 1550.72 11.8861C1558.64 3.96506 1568.03 0.0060061 1578.89 0.0060061C1589.74 0.0060061 1599.21 3.96506 1607.29 11.8861C1615.35 19.8042 1619.39 29.1972 1619.39 40.047C1619.39 50.8998 1615.5 60.2146 1607.73 67.9855C1599.95 75.7624 1590.34 79.6464 1578.89 79.6464" fill="#6633FF"/>
    <path d="M1699.95 271.923V169.843H1655.93V114.845H1699.95V60.9383L1774.34 46.2346L1771.27 114.845H1832.02V169.843H1771.27V257.842C1771.27 267.818 1773.54 274.859 1778.09 278.962C1782.64 283.073 1790.34 285.122 1801.21 285.122C1805.31 285.122 1809.42 284.833 1813.53 284.242C1817.64 283.659 1823.22 282.339 1830.26 280.282V337.924C1823.8 339.978 1815.88 341.661 1806.49 342.982C1797.09 344.304 1788.73 344.961 1781.39 344.961C1754.69 344.961 1734.43 338.801 1720.64 326.482C1706.84 314.161 1699.95 295.977 1699.95 271.923Z" fill="#6633FF"/>
    <path d="M1871.64 341.883V24.2829L1942.96 7.27528V151.804C1951.76 138.602 1962.25 128.561 1974.43 121.664C1986.61 114.776 2000.03 111.325 2014.71 111.325C2036.72 111.325 2054.77 118.585 2068.86 133.105C2082.95 147.625 2089.99 166.179 2089.99 188.764V341.883H2018.68V209.444C2018.68 196.836 2015.22 186.639 2008.33 178.863C2001.43 171.094 1992.26 167.204 1980.82 167.204C1973.18 167.204 1963.53 169.291 1957.69 173.182C1945.91 181.03 1941.99 188.877 1942.96 201.819V341.883H1871.64Z" fill="#6633FF"/>
    <path d="M1136.42 343.421H1211.76C1213.4 286.477 1216.04 195.454 1218.42 186.002C1222.58 169.432 1234.52 162.729 1250.86 164.154C1265.53 165.433 1274.18 173.999 1276.75 190.853C1277.97 198.862 1278.21 207.05 1278.46 215.17C1278.63 220.894 1277.06 290.304 1275.87 343.421H1349.8C1350.78 288.237 1352.11 224.05 1352.81 215.284C1353.72 203.93 1355.69 192.104 1360.11 181.731C1365.69 168.613 1379.07 163.522 1393.19 165.957C1405.23 168.032 1412.19 175.123 1414.66 190.077C1416.29 199.958 1416.67 210.125 1416.77 220.17C1416.91 234.041 1415.92 288.952 1414.92 343.421H1487.96C1489.16 270.978 1490.32 193.389 1489.48 165.457C1488.78 142.296 1475.46 124.83 1453.41 115.269C1414.75 98.4986 1371.96 109.306 1345.98 142.369C1345.35 143.172 1344.17 143.538 1342.92 144.305C1329.18 121.223 1308.28 110.397 1282.31 108.444C1256.34 106.489 1234.16 115.632 1214.7 134.436C1214.25 125.668 1213.92 119.219 1213.55 111.887C1190.86 111.887 1169.19 112.049 1147.53 111.797C1139.84 111.709 1139.98 116.446 1139.99 121.772C1140.03 144.635 1138.28 288.435 1136.42 343.421" fill="#6633FF"/>
    <path d="M273.013 131.099V343.355H344.331V53.462C333.981 82.4609 316.663 118.666 273.013 131.099Z" fill="#6633FF"/>
    <path d="M7.81051 151.451C-7.81651 99.3303 -0.0106296 49.4759 66.3506 30.6089C83.1798 25.8238 108.833 22.3664 126.247 22.096C189.813 21.1078 321.445 21.8888 324.453 22.1261C326.106 22.2582 319.744 47.2861 308.597 63.8372C290.364 90.9076 264.39 103.611 231.574 105.263C191.166 107.299 150.644 107.678 110.171 107.696C70.1002 107.717 35.7188 119.696 9.30736 150.939C9.0162 151.286 8.3212 151.294 7.81051 151.451Z" fill="#6633FF"/>
    <path d="M207.696 139.206L100.5 139.011C44.9133 139.495 0 184.671 0 240.342C0 296.012 44.9133 341.19 100.5 341.673V210.914H207.696V139.206Z" fill="#6633FF"/>
    </svg>
